train-car-box-full.svg

<svg  viewBox="0 0 24 24" fill="currentColor"><path  d="M1 7V17H2C2 18.11 2.9 19 4 19S6 18.11 6 17H18C18 18.11 18.9 19 20 19S22 18.11 22 17H23V7H1M16 16H14V11H10V16H8V9H16V16Z"/></svg>

<svg fill="currentColor" viewBox="0 0 24 24"><path d="M1 7v10h1a2 2 0 1 0 4 0h12a2 2 0 1 0 4 0h1V7zm15 9h-2v-5h-4v5H8V9h8z"/></svg>
